dist/img/svg/TV2.svg

<svg width="25" height="21" xmlns="http://www.w3.org/2000/svg">
 <title>Artboard 67</title>

 <g>
  <title>background</title>
  <rect x="-1" y="-1" width="25" height="21" id="canvas_background" fill="none"/>
 </g>
 <g>
  <title>Layer 1</title>
  <path stroke="null" d="m17.625306,0.73809l-1.403646,-0.738095l-1.788646,2.95238l-3.866042,0l-1.788646,-2.95238l-1.403646,0.738095l1.355521,2.214285l-9.063542,0l0,17.714283l25.666667,0l0,-17.714283l-9.063542,0l1.355521,-2.214285zm6.103854,18.452378l-22.458334,0l0,-14.761902l22.458334,0l0,14.761902zm-15.095208,-12.215474l-0.946458,0.679048l0,8.384761l0.946458,0.679048l9.480625,-3.793809l0,-2.155238l-9.480625,-3.793809zm7.876458,4.982142l-7.21875,2.885952l0,-5.985951l7.21875,2.885952l0,0.214048z" id="svg_1"/>
 </g>
</svg>

<svg width="25" height="21" xmlns="http://www.w3.org/2000/svg"><path fill="none" d="M-1-1h25v21H-1z"/><path stroke="null" d="M17.625.738L16.222 0l-1.789 2.952h-3.866L8.778 0 7.375.738 8.73 2.952H-.333v17.715h25.666V2.952H16.27L17.625.738zM23.73 19.19H1.271V4.43h22.458v14.76zM8.634 6.975l-.947.679v8.385l.947.679 9.48-3.794v-2.155l-9.48-3.794zm7.876 4.982l-7.218 2.886V8.857l7.218 2.886v.214z"/></svg>
